X: 3339
T: WATERLOO HORNPIPE
R: Hornpipe.
%R: hornpipe, reel
B: James Kerr "Merry Melodies" v.3 p.36 #339
Z: 2016 John Chambers <jc:trillian.mit.edu>
M: C
L: 1/8
K: D
(AG) |\
FGEF DFAd | cdBc Aceg |\
fgef decd | BcAB GBAG |\
FGEF DFAd | cdBc Aceg |\
fafd dfec | d2d2d2 :|
|: (de) |\
fedf edce | dcBd cBAc |\
BAGB AGFA | GFED DCB,A, |\
FGEF DFAd | cdBc Aceg |\
fafd egec | d2d2d2 :|

%%sep 1 1 500
%%sep 1 1 500

